!!!COM: Bach, Johann Sebastian
!!!CDT: 1685/3//-1750/7/28/
!!!OTL@@DE: Wer nur den lieben Gott laesst walten
!!!SCT: BH 339
!!!SCT: BWV 179
!!!AGN: 4-Part Chorale
**harm	**root	**kern	**kern	**kern	**kern
*	*Iorgan	*Iorgan	*Iorgan	*Iorgan	*Iorgan
!	!	!bass	!tenor	!alto	!soprno
*	*	*clefF4	*clefF4	*clefG2	*clefG2
*M4/4	*M4/4	*M4/4	*M4/4	*M4/4	*M4/4
*met(c)	*met(c)	*met(c)	*met(c)	*met(c)	*met(c)
*MM60	*MM60	*MM60	*MM60	*MM60	*MM60
*k[b-]	*k[b-]	*k[b-]	*k[b-]	*k[b-]	*k[b-]
*d:	*d:	*d:	*d:	*d:	*d:
*>A	*>A	*>A	*>A	*>A	*>A
i	4AA	8d	4f	4a	4a
.	.	8c	.	.	.
=1	=1	=1	=1	=1	=1
VI	4FF	4B-	8f	16a	4dd
.	.	.	.	16g	.
.	.	.	16e	4b-	.
.	.	.	16d	.	.
V	4EE	4A	8c#	.	4ee
.	.	.	8a	16a	.
.	.	.	.	16g	.
I	4AA	4D	4a	8f	4ff
.	.	.	.	4dd	.
V/V	4BB	4E	4g#	.	4ee
.	.	.	.	[8cc	.
=2	=2	=2	=2	=2	=2
V7b/IV	4AA	4F#	4a	8cc]	4dd
.	.	.	.	16b	.
.	.	.	.	16a	.
Vb/V	4BB	4G#	4e	8b	4ee
.	.	.	.	8b	.
V7	2EE	2A	4.e	8b	4.cc#
.	.	.	.	8a	.
.	.	.	.	8g	.
.	.	.	8d	8f	8b
=3	=3	=3	=3	=3	=3
V;	4EE;	4A;	4c#;	4e;	4a;
vii/IV	4CC#	4F#	4A	8a	4cc
.	.	.	.	8g	.
V7/IV	4AA	4D	4d	4f#	4cc
iv	4DD	4B-	4d	4g	4b-
=4	=4	=4	=4	=4	=4
V7d	8EE	8G	8c#	8e	4a
ib	8AA	8F	8d	8f	.
ii7Dc	8BB	8B-	8e	8g	4dd
ic	8AA	8A	8f	8a	.
vii7D/V	4DD#	4G#	8f	4b	4dd
.	.	.	8e	.	.
V	4EE	4A	4e	4a	4cc#
=5	=5	=5	=5	=5	=5
I	2.AA	2.D;	2.f#;	2.a;	2.dd;
!!linebreak: 2
=:|!	=:|!	=:|!	=:|!	=:|!	=:|!
*>B	*>B	*>B	*>B	*>B	*>B
V	4EE	4A	4a	4cc#	4ee
=6	=6	=6	=6	=6	=6
i	4AA	4d	16a	4dd	4ff
.	.	.	16f	.	.
.	.	.	4b-	.	.
V7/III	4GG	8c	.	4ee	4gg
.	.	8B-	16a	.	.
.	.	.	16b-	.	.
III	4CC	8A	8f	8ff	4aa
.	.	8G	8g	8cc	.
III	4CC	4F	4a	8ff	4aa
.	.	.	.	8ee-	.
=7	=7	=7	=7	=7	=7
iv	4DD	8G	8b-	4dd	4gg
.	.	16A	8g	.	.
.	.	16B-	.	.	.
V7/III	4GG	8c	8cc	4ee	4gg
.	.	8C	8b-	.	.
III;	4CC;	4F;	4a;	4cc;	4ff;
III	4CC	4F	4f	4cc	4aa
=8	=8	=8	=8	=8	=8
iv	4DD	4G	8f	4b-	4gg
.	.	.	8e	.	.
vii7D/V	4DD#	4G#	8d	4b	4ff
.	.	.	16c#	.	.
.	.	.	16d	.	.
V7	4EE	4A	8A	4cc#	4ee
.	.	.	8g	.	.
VI	4FF	4B-	8f	4dd	4dd
.	.	.	8e	.	.
=9	=9	=9	=9	=9	=9
vii7D/V	4DD#	8B	4.d	8g#	4ff
.	.	8G#	.	8b	.
V7	4EE	8A	.	8b-	4ee
.	.	8AA	8c#	16a	.
.	.	.	.	16g	.
I;	4AA;	4D;	4A;	4f#;	4dd;
==	==	==	==	==	==
*-	*-	*-	*-	*-	*-
!!chor2scor: -l 2 -s 0.6 -o %b.pmx
!!!YEC: Copyright 2003 by Craig Stuart Sapp
!!!license: GNU General Public License (http://www.gnu.org/copyleft/gpl.html)
!!!SMA: 371 Bach Chorales, edited by Ludwig Erk, C.F. Peters
!!!PDT: 1850, 1865
!!!ONB: Harmony and Root analysis done manually by Craig Sapp
